X: 1
T: Uncle Max's Bulgar   [C]
Z: 2013 John Chambers <jc:trillian.mit.edu>
M: 4/4
L: 1/16
K: C
"A"|: C2E2G2 !Segno!|\
c4 B2G2 _B4 A2F2 | _A4 G2F2 E2F2 G4 |\
z2_A2G2F2 G2A2B2G2 | B2c2 G4 z2CE GCEG |
c4 B2G2 _B4 A2F2 | _A6 _d2- (3d2c2_B2 (3A2G2F2 |\
G4 E3C D^CDF ED=CB, | C8 "^fine"z2 :|
^F,G, _A,=A,_B,=B, |\
"B"|: CB,CE D^CDF E^DEG FEFA | G8 z2 C2E2G2 |\
B2c2G3E FEFA GFED | ^D2 E6 z2B,C ^C=D^DE |
F2_A2G2F2 G2A2B2c2 | _d4 d4 (3d2c2=B2 (3_A2G2F2 |\
G4 E3C D=B,DF EDCB, |[1 CcBA GAGF EFDE CG,A,B, :|[2 C8 z2 |]
"C"|: _B,2_E2F2 | G6 F_E F6 _B2 |\
_B_AAG GFF_E ^F2 G4 =B2- | B4 _B2_A2 G2A2 B2=B2 |\
_A8 z2F2^F2G2 | _A2_G2F2_E2 =E2 F4 F2 |
FE_DE DC_B,A, B,8 | (3F,2_B,2C2 (3_D2C2B,2 (3E2F2G2 (3E2-E2D2 |\
[1 C4 z4 z2 :|[2 C4 C4 E4 G4 !Segno!|]

%%sep 1 1 500
%%sep 1 1 500
